X:0243
T:The Whigs of Fife.
M:C|
L:1/8
Q:1/2=96
I: :: ::
Z:Jack Campin * www.campin.me.uk * 2009
K:E Minor
(g|g)G G/G/G BAAB|gG G/G/G gaba       |gG G/G/G B(AA)B| GE     FD (E2 E):|
 f |gddg     aeef|gdde     g/f/g/a/ ba|gddg     aeef  |(g/a/b) a>g e2 e :|
<end>
<start>
